public/images/Bitocin.svg

<svg width="69" height="69" viewBox="0 0 69 69" fill="none" xmlns="http://www.w3.org/2000/svg">
<path fill-rule="evenodd" clip-rule="evenodd" d="M68.4976 34.8561C68.4976 53.6592 53.2546 68.9022 34.4516 68.9022C15.6483 68.9022 0.405273 53.6592 0.405273 34.8561C0.405273 16.0529 15.6483 0.809937 34.4516 0.809937C53.2546 0.809937 68.4976 16.0529 68.4976 34.8561ZM42.6309 22.2067C47.367 23.8331 50.8313 26.2681 50.1515 30.8001C49.658 34.1188 47.8113 35.7239 45.358 36.2858C48.7239 38.0314 49.8712 41.3442 48.8052 45.3497C46.7814 51.1142 41.9706 51.5995 35.5718 50.3946L34.0182 56.5912L30.2675 55.6588L31.7998 49.5454C30.8275 49.3048 29.8337 49.0473 28.8098 48.7726L27.2712 54.916L23.5247 53.9837L25.0762 47.7742L17.5214 45.8755L19.385 41.5968C19.385 41.5968 22.1504 42.327 22.112 42.2738C23.1742 42.5355 23.6465 41.8459 23.8324 41.3883L28.0427 24.5695C28.0896 23.7754 27.8139 22.7751 26.2944 22.3962C26.3521 22.3557 23.5696 21.7214 23.5696 21.7214L24.5677 17.7301L32.1331 19.597L33.672 13.4578L37.4206 14.3902L35.9138 20.408C36.9226 20.6357 37.9357 20.8678 38.9209 21.1126L40.4169 15.1331L44.1676 16.0655L42.6309 22.2067ZM33.6564 32.4476C36.2113 33.125 41.7709 34.599 42.74 30.7343C43.7286 26.7802 38.3273 25.5861 35.6827 25.0014C35.3831 24.9351 35.1184 24.8767 34.9029 24.8231L33.0351 32.2861C33.2131 32.33 33.4221 32.3856 33.6564 32.4476ZM30.7616 44.4636C33.8217 45.2697 40.5144 47.0325 41.5794 42.7741C42.6695 38.4198 36.1804 36.9697 33.0142 36.2619C32.6608 36.183 32.348 36.1131 32.0926 36.0496L30.0323 44.2749C30.2415 44.3266 30.4874 44.3914 30.7616 44.4636Z" fill="#F7931A"/>
</svg>

<svg xmlns="http://www.w3.org/2000/svg" width="69" height="69" fill="none"><path fill="#F7931A" fill-rule="evenodd" d="M68.498 34.856c0 18.803-15.243 34.046-34.046 34.046C15.648 68.902.405 53.66.405 34.856S15.648.81 34.452.81s34.046 15.243 34.046 34.046M42.63 22.206c4.736 1.627 8.2 4.062 7.52 8.594-.493 3.319-2.34 4.924-4.793 5.486 3.366 1.745 4.513 5.058 3.447 9.064-2.024 5.764-6.834 6.25-13.233 5.045l-1.554 6.196-3.75-.932 1.532-6.114c-.973-.24-1.966-.498-2.99-.772l-1.539 6.143-3.746-.932 1.551-6.21-7.555-1.898 1.864-4.28s2.765.731 2.727.678c1.062.261 1.535-.428 1.72-.886l4.21-16.818c.048-.795-.228-1.795-1.748-2.174.058-.04-2.724-.675-2.724-.675l.998-3.99 7.565 1.866 1.539-6.14 3.749.933-1.507 6.018c1.009.228 2.022.46 3.007.705l1.496-5.98 3.75.933zm-8.975 10.242c2.555.677 8.115 2.151 9.084-1.714.989-3.954-4.413-5.148-7.057-5.733-.3-.066-.565-.124-.78-.178l-1.868 7.463q.268.068.621.162m-2.894 12.016c3.06.806 9.752 2.569 10.817-1.69 1.09-4.354-5.399-5.804-8.565-6.512a42 42 0 0 1-.921-.212l-2.06 8.225c.208.052.454.116.729.189" clip-rule="evenodd"/></svg>
